**kern
*staff1
!!pagebreak:original
*I"P1
=1-
*clefG2
*k[]
*M2/4
2g/
=2
bq/
8a/L
8g/
8a/
8b/J
=3
4g/
[4cc\
=4
4cc\]
[4b\
=5
8b/L]
8a/
8a/
8g#/J
=6
8b/L
8a/
8a/
8g#/J
=7
8b/L
8a/
8a/
8g/J
=8
8g/L
8f#/
8e/
8d/J
*-
